images/sets/home.svg

<svg xmlns="http://www.w3.org/2000/svg" width="16" height="16" viewBox="0 0 16 16">
  <g fill="none" transform="translate(-4 -4)">
    <rect width="24" height="24"/>
    <path fill="#0D0D17" d="M5,4 L10,4 C10.5522847,4 11,4.44771525 11,5 L11,10 C11,10.5522847 10.5522847,11 10,11 L5,11 C4.44771525,11 4,10.5522847 4,10 L4,5 C4,4.44771525 4.44771525,4 5,4 Z M14,4 L19,4 C19.5522847,4 20,4.44771525 20,5 L20,10 C20,10.5522847 19.5522847,11 19,11 L14,11 C13.4477153,11 13,10.5522847 13,10 L13,5 C13,4.44771525 13.4477153,4 14,4 Z M14,13 L19,13 C19.5522847,13 20,13.4477153 20,14 L20,19 C20,19.5522847 19.5522847,20 19,20 L14,20 C13.4477153,20 13,19.5522847 13,19 L13,14 C13,13.4477153 13.4477153,13 14,13 Z M5,13 L10,13 C10.5522847,13 11,13.4477153 11,14 L11,19 C11,19.5522847 10.5522847,20 10,20 L5,20 C4.44771525,20 4,19.5522847 4,19 L4,14 C4,13.4477153 4.44771525,13 5,13 Z"/>
  </g>
</svg>

<svg width="24" height="24" xmlns="http://www.w3.org/2000/svg"><path d="M5 4h5a1 1 0 0 1 1 1v5a1 1 0 0 1-1 1H5a1 1 0 0 1-1-1V5a1 1 0 0 1 1-1zm9 0h5a1 1 0 0 1 1 1v5a1 1 0 0 1-1 1h-5a1 1 0 0 1-1-1V5a1 1 0 0 1 1-1zm0 9h5a1 1 0 0 1 1 1v5a1 1 0 0 1-1 1h-5a1 1 0 0 1-1-1v-5a1 1 0 0 1 1-1zm-9 0h5a1 1 0 0 1 1 1v5a1 1 0 0 1-1 1H5a1 1 0 0 1-1-1v-5a1 1 0 0 1 1-1z" class="main" fill="#0D0D17" fill-rule="nonzero"/></svg>
